X: 2
T: Missa [Bergerette savoysienne] / Gloria
N: Derived from Ano1001b-Missa_Bergerette_savoysienne-Gloria-Jena_32.krn
C: Anonymous
%%abc-version 2.0
%%abcx-abcm2ps-target-version 5.9.1 (29 Sep 2008)
%%abc-creator hum2abc beta
%%abcx-conversion-date 2019/02/16 20:18:26
%%abc-edited-by Jesse Rodin
%%abc-edited-by Jesse Rodin 8/14/2013
%%abcx-initial-encoding-date 2013/08/14/
%%humdrum-veritas 1168885330
%%humdrum-veritas-data 816931631
%%linebreak <none>
%%barnumbers 0
L: 1/4
M: 2/1
Q: 1/2=120
%%staves [1 2 3 4]
V: 1 clef=treble
V: 2 clef=treble-8
V: 3 clef=treble-8
V: 4 clef=bass
K: C
[V:1] z8 | 
[V:2] c4c4 | 
[V:3] z8 | 
[V:4] z8 | 
[V:1] z8 | 
[V:2] d2d2e4 | 
[V:3] z8 | 
[V:4] z8 | 
[V:1] c4c4 | 
[V:2] z2a3gfe | 
[V:3] z8 | 
[V:4] z8 | 
[V:1] d2d2e4 | 
[V:2] f4e3f | 
[V:3] z8 | 
[V:4] z8 | 
[V:1] e4e2e2- | 
[V:2] g2a4gf | 
[V:3] z8 | 
[V:4] z8 | 
[V:1] edc4BA | 
[V:2] g2e4dc | 
[V:3] z8 | 
[V:4] z8 | 
[V:1] B4z4 | 
[V:2] g4z2d2- | 
[V:3] z8 | 
[V:4] z8 | 
[V:1] f4f4 | 
[V:2] defga2_b2 | 
[V:3] z8 | 
[V:4] z8 | 
[V:1] e4d4- | 
[V:2] g2a2f2g2- | 
[V:3] z8 | 
[V:4] z8 | 
[V:1] d2cBc2d2- | 
[V:2] gfede2f2- | 
[V:3] z8 | 
[V:4] z8 | 
[V:1] dcc4B2 | 
[V:2] fedcd4 | 
[V:3] z8 | 
[V:4] z8 | 
[V:1] c2e3dcB | 
[V:2] c4G4 | 
[V:3] c4c2c2 | 
[V:4] C,4C,2C,2 | 
[V:1] A4G4 | 
[V:2] A3Bc2B2- | 
[V:3] d4e4 | 
[V:4] F,4E,4 | 
[V:1] c4B2B2- | 
[V:2] B2A2B2g2- | 
[V:3] e4e2e2- | 
[V:4] A,4G,4 | 
[V:1] B2AGA4 | 
[V:2] gfe4d2 | 
[V:3] edc4BA | 
[V:4] E,4F,4 | 
[V:1] G3AB2c2- | 
[V:2] e4z2e2 | 
[V:3] B4z2c2- | 
[V:4] E,4z2C,2 | 
[V:1] c2A2B2c2 | 
[V:2] A4e4 | 
[V:3] cdefg2c2 | 
[V:4] F,4E,2C2 | 
[V:1] d2e4dc | 
[V:2] d2c2g4- | 
[V:3] gfedc4 | 
[V:4] B,2C4B,A, | 
[V:1] B4A4 | 
[V:2] g2fef2d2- | 
[V:3] d8 | 
[V:4] G,4D,4 | 
[V:1] z2A4A2 | 
[V:2] d2cBA4 | 
[V:3] f6ed | 
[V:4] D,2D,4F,2- | 
[V:1] A2GFG4 | 
[V:2] z2d4c2 | 
[V:3] c2d2G4 | 
[V:4] F,2E,D,E,4 | 
[V:1] F2A4GF | 
[V:2] d2c2d4 | 
[V:3] A6B2 | 
[V:4] D,2F,4E,D, | 
[V:1] E2A3GFE | 
[V:2] G2A4a2- | 
[V:3] c4f4- | 
[V:4] C,2F,4D,2- | 
[V:1] D2d4^c2 | 
[V:2] a2a2a4 | 
[V:3] f2f2e4 | 
[V:4] D,E,F,G,A,4 | 
[V:1] d4z2d2 | 
[V:2] f2g4g2 | 
[V:3] d6cd | 
[V:4] B,2G,3A,B,2 | 
[V:1] e6dc | 
[V:2] g4e4 | 
[V:3] c6Bc | 
[V:4] C4C,4 | 
[V:1] dcBAG3A | 
[V:2] d4z2g2- | 
[V:3] B4c4 | 
[V:4] G,4E,2C,2 | 
[V:1] B2c4B2 | 
[V:2] g2feg2G2- | 
[V:3] d8 | 
[V:4] G,4G,4 | 
[V:1] c2A4G2 | 
[V:2] G2A2F2G2 | 
[V:3] c8- | 
[V:4] C,2F,4E,2 | 
[V:1] F2EDE4 | 
[V:2] A4z2G2- | 
[V:3] c8 | 
[V:4] F,4C,3D, | 
[V:1] z8 | 
[V:2] GABcd2e2- | 
[V:3] z8 | 
[V:4] E,F,G,3F,E,D, | 
[V:1] z8 | 
[V:2] edc4B2 | 
[V:3] z8 | 
[V:4] G,2C,2D,4 | 
[V:1] z2G4F2 | 
[V:2] c4z4 | 
[V:3] z8 | 
[V:4] C,2C3B,A,2 | 
[V:1] E4D4 | 
[V:2] z8 | 
[V:3] z8 | 
[V:4] G,2C4B,2 | 
[V:1] C4z2c2- | 
[V:2] z2g4e2 | 
[V:3] z8 | 
[V:4] C8 | 
[V:1] c2B2A2d2- | 
[V:2] f2g2a2b2- | 
[V:3] z8 | 
[V:4] z8 | 
[V:1] d2cBA4 | 
[V:2] bag4f2 | 
[V:3] z8 | 
[V:4] z8 | 
[V:1] G4z4 | 
[V:2] g2e4dc | 
[V:3] z8 | 
[V:4] z2G,4A,2 | 
[V:1] z8 | 
[V:2] d2cBA2a2 | 
[V:3] z8 | 
[V:4] B,4C4 | 
[V:1] z8 | 
[V:2] g2f3ee2- | 
[V:3] z8 | 
[V:4] B,2A,4G,2 | 
[V:1] A4G4 | 
[V:2] e2d2e3d | 
[V:3] z8 | 
[V:4] F,4E,4 | 
[V:1] G2A2G2A2- | 
[V:2] cBA2z2A2- | 
[V:3] c4c2c2 | 
[V:4] E,2F,2E,2F,2- | 
[V:1] A2B2G3A | 
[V:2] A2G2c2B2- | 
[V:3] d4e4 | 
[V:4] F,2G,2E,3F, | 
[V:1] B2c4B2 | 
[V:2] B2A4B2- | 
[V:3] e4e2e2- | 
[V:4] G,2A,4G,2 | 
[V:1] G4A2c2 | 
[V:2] B2G2c4 | 
[V:3] edc4BA | 
[V:4] E,4A,4 | 
[V:1] B2G4A2- | 
[V:2] d4e2c2 | 
[V:3] B4z2c2- | 
[V:4] G,4E,2F,2- | 
[V:1] A2GFE4 | 
[V:2] f4z2g2 | 
[V:3] cdefg2c2 | 
[V:4] F,2E,D,C,4 | 
[V:1] C4G4 | 
[V:2] e2g2e2dc | 
[V:3] gfedc4 | 
[V:4] z4C,4 | 
[V:1] z4G4 | 
[V:2] B4B2B2 | 
[V:3] d8 | 
[V:4] G,4G,2G,2 | 
[V:1] A6A2- | 
[V:2] c2c2d2cB | 
[V:3] f6ed | 
[V:4] F,2F,2D,4 | 
[V:1] A2F2G2c2- | 
[V:2] A2d2B2c2- | 
[V:3] c2d2G4 | 
[V:4] z2D,2E,2C,2 | 
[V:1] c2c2d4 | 
[V:2] cBAGF4 | 
[V:3] A6B2 | 
[V:4] F,4D,4 | 
[V:1] e4f2d2- | 
[V:2] G4z4 | 
[V:3] c4f4- | 
[V:4] C,4D,4 | 
[V:1] d2d2e2dc | 
[V:2] d4G3A | 
[V:3] f2f2e4 | 
[V:4] _B,,2B,,2C,4 | 
[V:1] B2c4B2 | 
[V:2] B2G2g4 | 
[V:3] d6cd | 
[V:4] G,4z2G,2 | 
[V:1] c2A2A2GA | 
[V:2] z2e2f4 | 
[V:3] c6Bc | 
[V:4] A,4F,2F,2 | 
[V:1] B2G4c2- | 
[V:2] d4e4 | 
[V:3] B4c4 | 
[V:4] G,4E,4 | 
[V:1] c2BAB4 | 
[V:2] a4g4 | 
[V:3] d8 | 
[V:4] F,4G,4 | 
[V:1] c8- | 
[V:2] e3fg2a2- | 
[V:3] c8- | 
[V:4] C,3D,E,2F,2- | 
[V:1] c8- | 
[V:2] a2g4f2 | 
[V:3] c8- | 
[V:4] F,2E,2F,4 | 
[V:1] c8 ||  
[V:2] g8 ||  
[V:3] c8 ||  
[V:4] C,8 ||  
[V:1]  [K:C] [K:clef=treble][M:2/1]c4c2c2 | 
[V:2]  [K:C] [K:clef=treble-8][M:2/1]g4g2g2 | 
[V:3]  [K:C] [K:clef=treble-8][M:2/1]e4e4 | 
[V:4]  [K:C] [K:clef=bass][M:2/1]C4C2C2 | 
[V:1] d4d2d2 | 
[V:2] g4d2g2- | 
[V:3] d4g4- | 
[V:4] B,4B,4 | 
[V:1] c2e4dc | 
[V:2] gfedc2c2 | 
[V:3] g4^f4 | 
[V:4] C4A,4 | 
[V:1] B3cd2e2- | 
[V:2] d4B2c2- | 
[V:3] g8- | 
[V:4] G,4z4 | 
[V:1] e2d4g2- | 
[V:2] c2B2G4 | 
[V:3] g8 | 
[V:4] z8 | 
[V:1] g2fefedc | 
[V:2] c4d4 | 
[V:3] a8 | 
[V:4] z8 | 
[V:1] B2e4d2- | 
[V:2] G2g4fe | 
[V:3] g4z4 | 
[V:4] z8 | 
[V:1] d2cBA4 | 
[V:2] f2e4d2 | 
[V:3] z8 | 
[V:4] F,4F,2F,2 | 
[V:1] G4z4 | 
[V:2] e2d4c2 | 
[V:3] z8 | 
[V:4] E,4E,4 | 
[V:1] z4z2d2 | 
[V:2] d2c4B2 | 
[V:3] z8 | 
[V:4] F,4D,4 | 
[V:1] e4f2g2- | 
[V:2] c4z2c2- | 
[V:3] z8 | 
[V:4] C,4z4 | 
[V:1] g2fed2f2- | 
[V:2] cdefg2a2 | 
[V:3] z8 | 
[V:4] z8 | 
[V:1] f2e2d2e2- | 
[V:2] f2g3fed | 
[V:3] z8 | 
[V:4] z8 | 
[V:1] edc4B2 | 
[V:2] c4d4 | 
[V:3] z8 | 
[V:4] z4z2G,2 | 
[V:1] c4z4 | 
[V:2] c4z2g2 | 
[V:3] z8 | 
[V:4] A,2C4B,2 | 
[V:1] z8 | 
[V:2] a2c'4b2 | 
[V:3] z8 | 
[V:4] A,4G,4 | 
[V:1] z8 | 
[V:2] a4g2g2 | 
[V:3] z8 | 
[V:4] C6B,2 | 
[V:1] z8 | 
[V:2] c'4b2a2- | 
[V:3] z8 | 
[V:4] A,4G,2F,2- | 
[V:1] z8 | 
[V:2] a2gfe2d2- | 
[V:3] z8 | 
[V:4] F,G,A,B,C2D2- | 
[V:1] z4c4 | 
[V:2] d2g4^f2 | 
[V:3] z8 | 
[V:4] D2CB,A,4 | 
[V:1] B2d4cB | 
[V:2] g8 | 
[V:3] z8 | 
[V:4] G,8 | 
[V:1] A4A4 | 
[V:2] z4c4 | 
[V:3] f6f2 | 
[V:4] z4F,4 | 
[V:1] A2A2G4 | 
[V:2] c4c2c2 | 
[V:3] f4e4- | 
[V:4] F,4C,2C,2 | 
[V:1] G4G4 | 
[V:2] B2B2G2g2- | 
[V:3] e2d2d4- | 
[V:4] G,4G,4 | 
[V:1] c4c4 | 
[V:2] g2^fe^f4 | 
[V:3] d4c4 | 
[V:4] A,4A,4 | 
[V:1] B2d4cB | 
[V:2] g4f2ed | 
[V:3] d4a4- | 
[V:4] G,4D,4 | 
[V:1] c3de4- | 
[V:2] c2A2B4 | 
[V:3] a4g4- | 
[V:4] F,4E,4 | 
[V:1] e2def2ed | 
[V:2] c4A4 | 
[V:3] g4f4 | 
[V:4] C,4D,4 | 
[V:1] c2d4^c2 | 
[V:2] z2a6 | 
[V:3] e8 | 
[V:4] A,4z2A,2 | 
[V:1] d2cBA4 | 
[V:2] f2g3fd2- | 
[V:3] d8- | 
[V:4] _B,2G,4F,2 | 
[V:1] _B2G4F2 | 
[V:2] d2cBA4 | 
[V:3] d8 | 
[V:4] G,4D,4 | 
[V:1] G2A2F2G2- | 
[V:2] B2c2d4 | 
[V:3] z8 | 
[V:4] z2A,2_B,2G,2- | 
[V:1] G2A2_B2G2 | 
[V:2] e2f2d2g2- | 
[V:3] z8 | 
[V:4] G,2F,2G,4 | 
[V:1] A4z2A2 | 
[V:2] g2f2g2c2 | 
[V:3] z8 | 
[V:4] D,4z2A,2 | 
[V:1] F2G2_B2A2- | 
[V:2] d4B2c2 | 
[V:3] z8 | 
[V:4] _B,2G,4F,2 | 
[V:1] AGG4^F2 | 
[V:2] G2B2A4 | 
[V:3] z8 | 
[V:4] G,4D,4 | 
[V:1] G4z4 | 
[V:2] G2g4a2 | 
[V:3] z4z2d2 | 
[V:4] z2G,4F,2 | 
[V:1] z8 | 
[V:2] g2a3gg2- | 
[V:3] e6d2 | 
[V:4] E,2C,2G,4 | 
[V:1] z4z2d2 | 
[V:2] g2^f2g4 | 
[V:3] c4B4 | 
[V:4] A,4G,4 | 
[V:1] e4f4 | 
[V:2] z2a4gf | 
[V:3] c4d4 | 
[V:4] z8 | 
[V:1] g4z4 | 
[V:2] e2g4a2 | 
[V:3] z4z2d2 | 
[V:4] z2G,4F,2 | 
[V:1] z8 | 
[V:2] g2a3gg2- | 
[V:3] e6d2 | 
[V:4] E,2C,2G,4 | 
[V:1] z4z2d2 | 
[V:2] g2^f2g4 | 
[V:3] c4B4 | 
[V:4] A,4G,4 | 
[V:1] e4f4 | 
[V:2] z2a4gf | 
[V:3] c4d4 | 
[V:4] z8 | 
[V:1] g3fedg2- | 
[V:2] e2d2g2fe | 
[V:3] z8 | 
[V:4] G,8- | 
[V:1] g2fed4 | 
[V:2] d4z4 | 
[V:3] g6f2 | 
[V:4] G,8 | 
[V:1] z2d2e2dc | 
[V:2] g8 | 
[V:3] e2d2c4 | 
[V:4] z8 | 
[V:1] B2c4B2 | 
[V:2] g4g4 | 
[V:3] d4d4 | 
[V:4] G,8 | 
[V:1] c2G3FE2- | 
[V:2] g4g4 | 
[V:3] c8 | 
[V:4] C,8 | 
[V:1] E2DCD4 | 
[V:2] g8 | 
[V:3] G8 | 
[V:4] z8 | 
[V:1] C3DE2F2 | 
[V:2] z2e2e2d2 | 
[V:3] g6f2 | 
[V:4] C,4C,2D,2 | 
[V:1] G3AB2c2 | 
[V:2] c2BAG2c2 | 
[V:3] e2dcB2e2 | 
[V:4] E,3F,G,2A,2 | 
[V:1] d3ef2e2- | 
[V:2] G4z2g2- | 
[V:3] defga2g2 | 
[V:4] _B,2A,G,F,2C2- | 
[V:1] edc4B2 | 
[V:2] g2a2g4 | 
[V:3] e2f2d4 | 
[V:4] C2F,2G,4 | 
[V:1] c8- | 
[V:2] e8 | 
[V:3] c8- | 
[V:4] C,8- | 
[V:1] c8 |]  
[V:2] g8 |]  
[V:3] c8 |]  
[V:4] C,8 |]  



